X: 1721
T: Aodhan's
R: slip jig
M: 9/8
K: Amixolydian
A3 c2d efe|A3 c2e dBG|A3 c2d e2f|gag ege dBG:|
ABA ABA a2A|ABA a2a gab|ABA ABA agf|gag ege dBG|
ABA ABA a2A|ABA a2a gab|=c'ab gae ged|B3 d=cB d=cB|

